src/assets/img/terminal.svg

<!-- Generated by IcoMoon.io -->
<svg version="1.1" xmlns="http://www.w3.org/2000/svg" width="32" height="32" viewBox="0 0 32 32">
<title>terminal</title>
<path fill="#fff" d="M0 2v28h32v-28h-32zM30 28h-28v-24h28v24zM28 6h-24v20h24v-20zM14 16h-2v2h-2v2h-2v-2h2v-2h2v-2h-2v-2h-2v-2h2v2h2v2h2v2zM22 20h-6v-2h6v2z"></path>
</svg>

<svg xmlns="http://www.w3.org/2000/svg" width="32" height="32"><path fill="#fff" d="M0 2v28h32V2H0zm30 26H2V4h28v24zM28 6H4v20h24V6zM14 16h-2v2h-2v2H8v-2h2v-2h2v-2h-2v-2H8v-2h2v2h2v2h2v2zm8 4h-6v-2h6v2z"/></svg>
